src/pos-icons/music-note-outline.svg

<svg height="24" viewBox="0 0 24 24" width="24" xmlns="http://www.w3.org/2000/svg"><path d="m12 3v10.55a4 4 0 1 0 2 3.45v-10h4v-4m-8 16a2 2 0 1 1 2-2 2 2 0 0 1 -2 2z"/></svg>

<?xml version="1.0" encoding="UTF-8"?><!DOCTYPE svg PUBLIC "-//W3C//DTD SVG 1.1//EN" "http://www.w3.org/Graphics/SVG/1.1/DTD/svg11.dtd"><svg xmlns="http://www.w3.org/2000/svg" xmlns:xlink="http://www.w3.org/1999/xlink" version="1.1" id="mdi-music-note-outline" width="24" height="24" viewBox="0 0 24 24"><path d="M12 3V13.55A4 4 0 1 0 14 17V7H18V3M10 19A2 2 0 1 1 12 17A2 2 0 0 1 10 19Z" /></svg>
